X: 1431
T: The Mooncoin Reel
M:C|
L:1/8
N:"collected by Dollard"
B:O'Neill's 1431
Z:"Transcribed by Bob Safranek, rjs@gsp.org"
K:D
((3ABc) | d2 (AF) DFAc | dced cAAc | BAGF    GABc | dced cABc |
          d2 (AF) DFAc | dced cAGA | BAGF    GABc | dcec d2   ||
de      | fdad    fdad | fdad fddf | ecgc    ecgc | ecgc ecce |
          fdad    fdad | fdad fddf | g2 (gf) gbag | fdec d2   |]


